X:1
T:Going Up to Zion
T:Going Up to Zion
T:George Crawford Hugg
T:A. S. Doughty, 1879
T:Public Domain Courtesy of the Cyber Hymnal™
T:Public Domain Courtesy of the Cyber Hymnal™
C:George Crawford Hugg
Z:Public Domain
Z:Courtesy of the Cyber Hymnal™
%%score ( 1 2 ) ( 3 4 )
L:1/8
Q:1/4=105
M:4/4
K:G
V:1 treble 
V:2 treble 
V:3 bass 
V:4 bass 
V:1
"^Lively" [GB]3 [Gc] [Gd]2 [Gd]2 | (ed) ([Ac][GB]) [FA]4 | [FA]3 [GB] [Ac]2 [Ac]2 | %3
w: 1.~On- ward, pil- grim,|don’t * de- * lay;|Go re- joic- ing|
w: 2.~In the way marked|out * of * old,|Fol- low line of|
w: 3.~Each step for- ward,|up * or * down,|Met by scorn, re-|
w: 4.~Sor- rows and af-|flic- * tions * meet;|Dan- gers threa- ten,|
w: 5.~On the mount His|praise * pro- * long;|Pass the gloo- my|
 ([Bd][Ac]) ([GB][FA]) [GB]4 | [Gc]3 [Gd] [Ge]2 [Ge]2 | [Gc]2 [Ge]2 [Gd]2 [GB]2 | %6
w: on * the * way,|Ris- ing high- er|ev- ery day, While|
w: du- * ty * bold;|Then each dan- ger|you be- hold Will|
w: buke, * or * frown,|Brings us near- er|to the crown We|
w: tri- * als * greet;|Fear not! Je- sus|guides the feet And|
w: vale * with * song;|Rich- est bless- ings|ev- er throng The|
 [FA]2 [FA]2 [Fd]2 [DF]2 | [DA]2 [DG]6 ||"^Refrain"!p! [GB][Ac] [GB]2 !>![Gd]2 !>![Bd]2 | %9
w: tra- veling up to|Zi- on.||
w: prove a chain- èd|li- on.||
w: shall re- ceive in|Zi- on.|Go- ing up high- er,|
w: points the way to|Zi- on.||
w: pil- grim’s way to|Zi- on.||
 [FA][GB] [FA]2 !>![FA]2 !>![Fc]2 | [GB]2!f! [GB]2 [Gd]3 [Ac] | [GB]2 [FA]6 | %12
w: |||
w: |||
w: go- ing up high- er,|High- er up to|Zi- on;|
w: |||
w: |||
!<(! [DG][DA] [DB]2 [Gc]2 [Gc]2 | [Gd]2 [Gd]2!<)! [Ge]2!ff! !fermata![Ge]2 | %14
w: ||
w: ||
w: Go- ing up high- er,|high- er, high- er,|
w: ||
w: ||
 [Gd]3 [Ac] [GB]2 [GB]2 | [FA]2 [Fd]2 G4 |] %16
w: ||
w: ||
w: To the ci- ty|of our God.|
w: ||
w: ||
V:2
 x8 | G2 x6 | x8 | x8 | x8 | x8 | x8 | x8 || x8 | x8 | x8 | x8 | x8 | x8 | x8 | x4 G4 |] %16
V:3
 [G,D]3 [G,C] [G,B,]2 [G,B,]2 | (CB,) [G,D]2 [D,D]4 | [D,D]3 [D,D] [D,D]2 [D,D]2 | %3
 [D,D]2 [D,D]2 [G,D]4 | [C,E]3 [C,D] [C,C]2 [C,C]2 | [E,C]2 [C,C]2 [G,B,]2 [G,D]2 | %6
 [D,D]2 [D,D]2 [D,A,]2 [D,A,]2 | [D,C]2 [G,B,]6 || [G,D][G,D] [G,D]2 !>![B,D]2 !>![G,D]2 | %9
 [D,D][D,D] [D,D]2 !>![D,D]2 !>![D,D]2 | [G,D]2 [G,D]2 [B,,G,]3 [C,A,] | [D,D]2 [D,D]6 | %12
 [G,B,][F,C] [=F,C]2 [E,E]2 [E,C]2 | [D,B,]2 [D,B,]2 [C,C]2 !fermata![^C,_B,]2 | %14
 [D,B,]3 [D,C] [D,C]2 [D,C]2 | [D,A,]2 [D,C]2 [G,B,]4 |] %16
V:4
 x8 | G,2 x6 | x8 | x8 | x8 | x8 | x8 | x8 || x8 | x8 | x8 | x8 | x8 | x8 | x8 | x8 |] %16

